src/icons/command.svg

<svg xmlns="http://www.w3.org/2000/svg" width="8" height="8" viewBox="0 0 8 8">
  <path d="M1.5 0c-.83 0-1.5.67-1.5 1.5s.67 1.5 1.5 1.5h.5v1h-.5c-.83 0-1.5.67-1.5 1.5s.67 1.5 1.5 1.5 1.5-.67 1.5-1.5v-.5h1v.5c0 .83.67 1.5 1.5 1.5s1.5-.67 1.5-1.5-.67-1.5-1.5-1.5h-.5v-1h.5c.83 0 1.5-.67 1.5-1.5s-.67-1.5-1.5-1.5-1.5.67-1.5 1.5v.5h-1v-.5c0-.83-.67-1.5-1.5-1.5zm0 1c.28 0 .5.22.5.5v.5h-.5c-.28 0-.5-.22-.5-.5s.22-.5.5-.5zm4 0c.28 0 .5.22.5.5s-.22.5-.5.5h-.5v-.5c0-.28.22-.5.5-.5zm-2.5 2h1v1h-1v-1zm-1.5 2h.5v.5c0 .28-.22.5-.5.5s-.5-.22-.5-.5.22-.5.5-.5zm3.5 0h.5c.28 0 .5.22.5.5s-.22.5-.5.5-.5-.22-.5-.5v-.5z"
  />
</svg>

<svg xmlns="http://www.w3.org/2000/svg" viewBox="0 0 8 8"><path d="M1.5 0C.67 0 0 .67 0 1.5S.67 3 1.5 3H2v1h-.5C.67 4 0 4.67 0 5.5S.67 7 1.5 7 3 6.33 3 5.5V5h1v.5C4 6.33 4.67 7 5.5 7S7 6.33 7 5.5 6.33 4 5.5 4H5V3h.5C6.33 3 7 2.33 7 1.5S6.33 0 5.5 0 4 .67 4 1.5V2H3v-.5C3 .67 2.33 0 1.5 0zm0 1c.28 0 .5.22.5.5V2h-.5c-.28 0-.5-.22-.5-.5s.22-.5.5-.5zm4 0c.28 0 .5.22.5.5s-.22.5-.5.5H5v-.5c0-.28.22-.5.5-.5zM3 3h1v1H3V3zM1.5 5H2v.5c0 .28-.22.5-.5.5S1 5.78 1 5.5s.22-.5.5-.5zM5 5h.5c.28 0 .5.22.5.5s-.22.5-.5.5-.5-.22-.5-.5V5z"/></svg>
